!!!OTL: ICH SASS UND SPANN VOR MEINER THUER
!!!ARE: Europa, Mitteleuropa, Deutschland
!!!SCT: B0163
!!!YEM: Copyright 1995, estate of Helmut Schaffrath.
**kern
*ICvox
*Ivox
*M4/4
*k[]
*C:
{8g
8a
8b
=1
4cc
4e
4f
4d
=2
4c
4.r}
{8c
8d
8e
=3
4f
4d
4.e
8c
=4
8e
8d
4d
8r}
{8g
8g
8f
=5
4.e
8e
4.d
8e
=6
4c
4.r}
{8c
8d
8e
=7
8d
8g
8g
8b
4.b
8a
=8
4a
4g
8r}
{8g
8a
8b
=9
4cc
4g
4dd
4g
=10
2ee
8r}
{8cc
8b
8a
=11
4g
4e
8g
8f
4d
=12
2c
8r}
==
!!!AGN: Ballade, Romanze
!!!ONB: ESAC (Essen Associative Code) Database: BOEHME
!!!AMT: simple quadruple
!!!AIN: vox
!!!EED: Helmut Schaffrath
!!!EEV: 1.0
*-
